BOEHME
CUT[ES STUNDEN DREI ROSEN AUF EINEM ZWEIG]
REG[Europa, Mitteleuropa, Deutschland]
KEY[B0125  08 Eb 4/4]
MEL[-5_  1_243_21  3_4_5_0_
    +1__765_  6_5_0_
    5_  +1_556_54  3_4_5_0_
    4__321_  2_1_0_ //] >>
FCT[Ballade, Romanze]
BOEHME
CUT[ES STUNDEN DREI ROSEN AUF EINEM ZWEIG]
REG[Europa, Mitteleuropa, Deutschland]
KEY[B0125  08 Eb 4/4]
MEL[-5_  1_243_21  3_4_5_0_
    +1__765_  6_5_0_
    5_  +1_556_54  3_4_5_0_
    4__321_  2_1_0_ //] >>
FCT[Ballade, Romanze]
